X: 15643
T: Going Home
R: reel
M: 4/4
K: Edorian
|:EDFE DB, (3B,A,B,|BABc dBed|(3ABc AF DEFA|dBAF GFED|
EDFE DB, (3B,A,B,|BABc dBed|(3ABc AF DEFA|dBAF GE E2:|
|:edef edBc|dcde dBAd|(3 Bcd ce dcde|fedc dcBA|
Beef edBc|dcde dBAd|Be (3efe dBAF|DFAF FE E2:|

